img/company_logo.svg

<svg width="83" height="19" viewBox="0 0 83 19" fill="none" xmlns="http://www.w3.org/2000/svg">
<path d="M6.08 15.28C8.68 15.28 10.34 14.12 11.32 12.3L8.02 10.42C7.58 11.12 7.12 11.52 6.32 11.52C5.42 11.52 4.7 10.7 4.7 9.56V9.52C4.7 8.44 5.42 7.6 6.38 7.6C7.12 7.6 7.6 8 7.98 8.7L11.24 6.86C10.4 5.08 8.7 3.84 6.3 3.84C2.74 3.84 0.34 6.5 0.34 9.56V9.6C0.34 12.66 2.76 15.28 6.08 15.28ZM17.5147 15.26C21.1147 15.26 23.6747 12.62 23.6747 9.54V9.5C23.6747 6.42 21.1347 3.82 17.5547 3.82C13.9547 3.82 11.3947 6.46 11.3947 9.54V9.58C11.3947 12.66 13.9347 15.26 17.5147 15.26ZM17.5547 11.48C16.5547 11.48 15.7547 10.62 15.7547 9.54V9.5C15.7547 8.46 16.4947 7.6 17.5147 7.6C18.5147 7.6 19.3147 8.46 19.3147 9.54V9.58C19.3147 10.62 18.5747 11.48 17.5547 11.48ZM24.7034 18.2H29.2434V13.76C29.9434 14.54 30.8634 15.26 32.5234 15.26C35.1034 15.26 37.1834 12.96 37.1834 9.5V9.46C37.1834 6.12 35.1234 3.82 32.4834 3.82C30.8234 3.82 29.9834 4.62 29.2434 5.42V4.08H24.7034V18.2ZM30.9634 11.52C29.9234 11.52 29.1434 10.64 29.1434 9.56V9.52C29.1434 8.42 29.9234 7.56 30.9634 7.56C32.0034 7.56 32.7834 8.42 32.7834 9.52V9.56C32.7834 10.66 32.0034 11.52 30.9634 11.52ZM43.6913 9.84L41.7913 4.08H37.0913L41.3713 14.58C41.1313 14.7 40.8913 14.74 40.6313 14.74C40.2113 14.74 39.4513 14.48 38.6313 14.02L37.3113 17.12C38.5313 17.8 39.9513 18.26 41.5313 18.26C44.0513 18.26 45.2113 17.1 46.2713 14.24L50.0513 4.08H45.4313L43.6913 9.84Z" fill="white"/>
<path d="M50.7581 18.2H55.2981V13.76C55.9981 14.54 56.9181 15.26 58.5781 15.26C61.1581 15.26 63.2381 12.96 63.2381 9.5V9.46C63.2381 6.12 61.1781 3.82 58.5381 3.82C56.8781 3.82 56.0381 4.62 55.2981 5.42V4.08H50.7581V18.2ZM57.0181 11.52C55.9781 11.52 55.1981 10.64 55.1981 9.56V9.52C55.1981 8.42 55.9781 7.56 57.0181 7.56C58.0581 7.56 58.8381 8.42 58.8381 9.52V9.56C58.8381 10.66 58.0581 11.52 57.0181 11.52ZM64.2338 3.3H68.9338V0.4H64.2338V3.3ZM64.3138 15H68.8538V4.08H64.3138V15ZM70.2503 18.2H74.7903V13.76C75.4903 14.54 76.4103 15.26 78.0703 15.26C80.6503 15.26 82.7303 12.96 82.7303 9.5V9.46C82.7303 6.12 80.6703 3.82 78.0303 3.82C76.3703 3.82 75.5303 4.62 74.7903 5.42V4.08H70.2503V18.2ZM76.5103 11.52C75.4703 11.52 74.6903 10.64 74.6903 9.56V9.52C74.6903 8.42 75.4703 7.56 76.5103 7.56C77.5503 7.56 78.3303 8.42 78.3303 9.52V9.56C78.3303 10.66 77.5503 11.52 76.5103 11.52Z" fill="#3ABF57"/>
</svg>

<svg width="83" height="19" fill="none" xmlns="http://www.w3.org/2000/svg"><path d="M6.08 15.28c2.6 0 4.26-1.16 5.24-2.98l-3.3-1.88c-.44.7-.9 1.1-1.7 1.1-.9 0-1.62-.82-1.62-1.96v-.04c0-1.08.72-1.92 1.68-1.92.74 0 1.22.4 1.6 1.1l3.26-1.84C10.4 5.08 8.7 3.84 6.3 3.84 2.74 3.84.34 6.5.34 9.56v.04c0 3.06 2.42 5.68 5.74 5.68zm11.435-.02c3.6 0 6.16-2.64 6.16-5.72V9.5c0-3.08-2.54-5.68-6.12-5.68-3.6 0-6.16 2.64-6.16 5.72v.04c0 3.08 2.54 5.68 6.12 5.68zm.04-3.78c-1 0-1.8-.86-1.8-1.94V9.5c0-1.04.74-1.9 1.76-1.9 1 0 1.8.86 1.8 1.94v.04c0 1.04-.74 1.9-1.76 1.9zm7.148 6.72h4.54v-4.44c.7.78 1.62 1.5 3.28 1.5 2.58 0 4.66-2.3 4.66-5.76v-.04c0-3.34-2.06-5.64-4.7-5.64-1.66 0-2.5.8-3.24 1.6V4.08h-4.54V18.2zm6.26-6.68c-1.04 0-1.82-.88-1.82-1.96v-.04c0-1.1.78-1.96 1.82-1.96s1.82.86 1.82 1.96v.04c0 1.1-.78 1.96-1.82 1.96zm12.728-1.68-1.9-5.76h-4.7l4.28 10.5c-.24.12-.48.16-.74.16-.42 0-1.18-.26-2-.72l-1.32 3.1c1.22.68 2.64 1.14 4.22 1.14 2.52 0 3.68-1.16 4.74-4.02l3.78-10.16h-4.62l-1.74 5.76z" fill="#fff"/><path d="M50.758 18.2h4.54v-4.44c.7.78 1.62 1.5 3.28 1.5 2.58 0 4.66-2.3 4.66-5.76v-.04c0-3.34-2.06-5.64-4.7-5.64-1.66 0-2.5.8-3.24 1.6V4.08h-4.54V18.2zm6.26-6.68c-1.04 0-1.82-.88-1.82-1.96v-.04c0-1.1.78-1.96 1.82-1.96s1.82.86 1.82 1.96v.04c0 1.1-.78 1.96-1.82 1.96zm7.216-8.22h4.7V.4h-4.7v2.9zm.08 11.7h4.54V4.08h-4.54V15zm5.936 3.2h4.54v-4.44c.7.78 1.62 1.5 3.28 1.5 2.58 0 4.66-2.3 4.66-5.76v-.04c0-3.34-2.06-5.64-4.7-5.64-1.66 0-2.5.8-3.24 1.6V4.08h-4.54V18.2zm6.26-6.68c-1.04 0-1.82-.88-1.82-1.96v-.04c0-1.1.78-1.96 1.82-1.96s1.82.86 1.82 1.96v.04c0 1.1-.78 1.96-1.82 1.96z" fill="#3ABF57"/></svg>
